img/social/youtube.svg

<svg width="40" height="27" viewBox="0 0 40 27" fill="none" xmlns="http://www.w3.org/2000/svg">
<path d="M38.3516 4.28906C37.9297 2.60156 36.5938 1.26562 34.9766 0.84375C31.9531 0 20 0 20 0C20 0 7.97656 0 4.95312 0.84375C3.33594 1.26562 2 2.60156 1.57812 4.28906C0.734375 7.24219 0.734375 13.5703 0.734375 13.5703C0.734375 13.5703 0.734375 19.8281 1.57812 22.8516C2 24.5391 3.33594 25.8047 4.95312 26.2266C7.97656 27 20 27 20 27C20 27 31.9531 27 34.9766 26.2266C36.5938 25.8047 37.9297 24.5391 38.3516 22.8516C39.1953 19.8281 39.1953 13.5703 39.1953 13.5703C39.1953 13.5703 39.1953 7.24219 38.3516 4.28906ZM16.0625 19.2656V7.875L26.0469 13.5703L16.0625 19.2656Z" fill="#1565D8"/>
</svg>

<svg width="40" height="27" fill="none" xmlns="http://www.w3.org/2000/svg"><path d="M38.352 4.29c-.422-1.688-1.758-3.024-3.375-3.446C31.953 0 20 0 20 0S7.977 0 4.953.844C3.336 1.266 2 2.602 1.578 4.289.734 7.242.734 13.57.734 13.57s0 6.258.844 9.282c.422 1.687 1.758 2.953 3.375 3.375C7.977 27 20 27 20 27s11.953 0 14.977-.773c1.617-.422 2.953-1.688 3.375-3.375.843-3.024.843-9.282.843-9.282s0-6.328-.843-9.28zm-22.29 14.976V7.875l9.985 5.695-9.985 5.696z" fill="#1565D8"/></svg>
